X:70
T:Maclote d'Habiemont
C:Traditional
O:Wallonie
Z:Bert Van Vreckem <http://flanders.blackmill.net/music/>
M:2/4
L:1/16
P:(AB)4
K:G
P:A
D|D3E F2FE|D2E2 F2FG|A2F2 D2F2|E2EF E2E2|D3E F2FE|D2E2 F2FG|A2F2 D2F2|D4D2z2||
P:B
A2Bc d2cB|A2B2 B2A2|A2Bc d2cB|A2G2 F4|A2A2 B2A2|G2F2 E2FG|A2F2 E2F2|D4D2z2|]

